X:253
T:Borobridge Hornpipe. Le4.253
L:1/8
B:L.Leadley MS#4 c1850
Z:vmp.Mike Hicken 2016 www.village-music-project.org.uk
N: This is tune 44 of The Fiddler of Helperby.
N: * These notes are crotchets in the original.
M:C|
Q:1/4=120
K:G
GBdg fedc|BdFA GFED|GD/D/ D2 AD/D/ D2|BAcA GFED|
GBdg fedc|BdFA GFED|CDB,D A,DG,[DB]|cAFA "*"G4 :|
|: b3a gfed|e^def gb B2|e^def gfga|bagf e2 (D/E/)F|
GBdg (fe).d.c|BdFA GFED|CDB,D A,DG,[DB]|cAFA "*" G4 :|

